X:82
T:Untitled Reel
C:Ed Yother
C:http://edyother.com
K:Edor
R:Reel
M:4/4
EAAG EDB,D | GBAd cAGF | EAAG EDB,G, | (3A,B,A, A,B, GB,A,2 |
EAAG EDB,D | (3DEF AB dBAG | EAAG EDB,G, | (3A,B,A, A,B, GB,A,2 |
|:  EAAd cAGF | Eeef gfed | (3BcB Bc dcBA | FBAF EDB,D :|

%%newpage
%%scale .75
%%staffsep 35

